imgs/arrow-grey-light-back.svg

<svg height="13" viewBox="0 0 8 13" width="8" xmlns="http://www.w3.org/2000/svg"><path d="m614.790039 544.49707c.123047.00586.231445-.032226.325195-.114258.09375-.082031.140625-.1875.140625-.316406s-.046875-.234375-.140625-.316406l-5.238281-5.255859 5.238281-5.238282c.09375-.082031.140625-.18457.140625-.307617s-.046875-.225586-.140625-.307617l-.065368-.061523c-.069214-.052735-.149964-.079102-.242249-.079102-.123047 0-.225586.046875-.307617.140625l-5.34375 5.326172c-.152344.152344-.228516.331055-.228516.536133s.076172.383789.228516.536132l5.326172 5.326172c.082031.082032.18457.125977.307617.131836z" fill="#b4b4b4" transform="translate(-608 -532)"/></svg>

<?xml version="1.0" encoding="UTF-8"?>
<svg width="8px" height="13px" viewBox="0 0 8 13" version="1.1" xmlns="http://www.w3.org/2000/svg" xmlns:xlink="http://www.w3.org/1999/xlink">
    <title></title>
    <g id="Page-1" stroke="none" stroke-width="1" fill="none" fill-rule="evenodd">
        <g id="Filtros" transform="translate(-767.000000, -1305.000000)" fill="#B4B4B4" fill-rule="nonzero">
            <g id="Tabla-data" transform="translate(159.000000, 773.000000)">
                <path d="M614.790039,544.49707 C614.913086,544.50293 615.021484,544.464844 615.115234,544.382812 C615.208984,544.300781 615.255859,544.195312 615.255859,544.066406 C615.255859,543.9375 615.208984,543.832031 615.115234,543.75 L609.876953,538.494141 L615.115234,533.255859 C615.208984,533.173828 615.255859,533.071289 615.255859,532.948242 C615.255859,532.825195 615.208984,532.722656 615.115234,532.640625 L615.049866,532.579102 C614.980652,532.526367 614.899902,532.5 614.807617,532.5 C614.68457,532.5 614.582031,532.546875 614.5,532.640625 L609.15625,537.966797 C609.003906,538.119141 608.927734,538.297852 608.927734,538.50293 C608.927734,538.708008 609.003906,538.886719 609.15625,539.039062 L614.482422,544.365234 C614.564453,544.447266 614.666992,544.491211 614.790039,544.49707 Z" id=""></path>
            </g>
        </g>
    </g>
</svg>
